Yaru++/apps/scalable/deadbeef.svg

<svg height="256" viewBox="0 0 256 256" width="256" xmlns="http://www.w3.org/2000/svg" xmlns:xlink="http://www.w3.org/1999/xlink">
  <filter id="filter936" color-interpolation-filters="sRGB" height="1.024" width="1.024" x="-.01" y="-.01">
    <feGaussianBlur stdDeviation="1.14"/>
  </filter>
  <filter id="filter950" color-interpolation-filters="sRGB" height="1.096" width="1.096" x="-.05" y="-.05">
    <feGaussianBlur stdDeviation="4.56"/>
  </filter>
  <g transform="translate(0 -256)">
    <path d="m128 270c-5.51612 0-16.51805 5.01187-28.68663 13.57473-12.16858 8.56334-25.837087 20.40739-38.584403 33.15424-12.746855 12.74731-24.590903 26.41582-33.154233 38.58441-8.562872 12.16857-13.574734 23.1705-13.574734 28.68662s5.011862 16.51805 13.574734 28.68662c8.56333 12.16859 20.407378 25.8371 33.154233 38.58441 12.747316 12.74685 26.415823 24.5909 38.584403 33.15424 12.16858 8.56286 23.17051 13.57473 28.68663 13.57473s16.51805-5.01187 28.68662-13.57473c12.16859-8.56334 25.8371-20.40739 38.58441-33.15424 12.74685-12.74731 24.5909-26.41582 33.15424-38.58441 8.56286-12.16857 13.57473-23.1705 13.57473-28.68662s-5.01187-16.51805-13.57473-28.68662c-8.56334-12.16859-20.40739-25.8371-33.15424-38.58441-12.74731-12.74685-26.41582-24.5909-38.58441-33.15424-12.16857-8.56286-23.1705-13.57473-28.68662-13.57473z" filter="url(#filter950)" opacity=".1"/>
    <path d="m128 270c-5.51612 0-16.51805 5.01187-28.68663 13.57473-12.16858 8.56334-25.837087 20.40739-38.584403 33.15424-12.746855 12.74731-24.590903 26.41582-33.154233 38.58441-8.562872 12.16857-13.574734 23.1705-13.574734 28.68662s5.011862 16.51805 13.574734 28.68662c8.56333 12.16859 20.407378 25.8371 33.154233 38.58441 12.747316 12.74685 26.415823 24.5909 38.584403 33.15424 12.16858 8.56286 23.17051 13.57473 28.68663 13.57473s16.51805-5.01187 28.68662-13.57473c12.16859-8.56334 25.8371-20.40739 38.58441-33.15424 12.74685-12.74731 24.5909-26.41582 33.15424-38.58441 8.56286-12.16857 13.57473-23.1705 13.57473-28.68662s-5.01187-16.51805-13.57473-28.68662c-8.56334-12.16859-20.40739-25.8371-33.15424-38.58441-12.74731-12.74685-26.41582-24.5909-38.58441-33.15424-12.16857-8.56286-23.1705-13.57473-28.68662-13.57473z" filter="url(#filter936)" opacity=".1"/>
    <path d="m128 270c-5.51612 0-16.51805 5.01187-28.68663 13.57473-12.16858 8.56334-25.837087 20.40739-38.584403 33.15424-12.746855 12.74731-24.590903 26.41582-33.154233 38.58441-8.562872 12.16857-13.574734 23.1705-13.574734 28.68662s5.011862 16.51805 13.574734 28.68662c8.56333 12.16859 20.407378 25.8371 33.154233 38.58441 12.747316 12.74685 26.415823 24.5909 38.584403 33.15424 12.16858 8.56286 23.17051 13.57473 28.68663 13.57473s16.51805-5.01187 28.68662-13.57473c12.16859-8.56334 25.8371-20.40739 38.58441-33.15424 12.74685-12.74731 24.5909-26.41582 33.15424-38.58441 8.56286-12.16857 13.57473-23.1705 13.57473-28.68662s-5.01187-16.51805-13.57473-28.68662c-8.56334-12.16859-20.40739-25.8371-33.15424-38.58441-12.74731-12.74685-26.41582-24.5909-38.58441-33.15424-12.16857-8.56286-23.1705-13.57473-28.68662-13.57473z" opacity=".1"/>
    <path d="m128 272c-5.41935 0-16.22826 4.92394-28.183355 13.33658-11.955097 8.4131-25.383806 20.04936-37.907484 32.57258-12.523226 12.52368-24.159484 25.95239-32.57258 37.90749-8.412646 11.95509-13.336581 22.764-13.336581 28.18335s4.923935 16.22826 13.336581 28.18335c8.413096 11.9551 20.049354 25.38381 32.57258 37.90749 12.523678 12.52322 25.952387 24.15948 37.907484 32.57258 11.955095 8.41264 22.764005 13.33658 28.183355 13.33658s16.22826-4.92394 28.18335-13.33658c11.9551-8.4131 25.38381-20.04936 37.90749-32.57258 12.52322-12.52368 24.15948-25.95239 32.57258-37.90749 8.41264-11.95509 13.33658-22.764 13.33658-28.18335s-4.92394-16.22826-13.33658-28.18335c-8.4131-11.9551-20.04936-25.38381-32.57258-37.90749-12.52368-12.52322-25.95239-24.15948-37.90749-32.57258-11.95509-8.41264-22.764-13.33658-28.18335-13.33658z" fill="#595959"/>
    <g transform="translate(0 256)">
      <path d="m16.03125 127.82617c-.000741.04784-.03125.1268-.03125.17383 0 1.35484.307324 3.04558.900391 5.00781.593066 1.96223 1.471999 4.1958 2.613281 6.63281 1.141282 2.43702 2.544806 5.07823 4.189453 7.85743 1.644647 2.77919 3.529651 5.69677 5.632813 8.68554 2.103273 2.98878 4.40924 6.06927 6.878906 9.20508s5.104135 6.32665 7.867187 9.53516c5.526105 6.41702 11.564559 12.90613 17.826172 19.16797 6.261839 6.26161 12.750945 12.30006 19.167969 17.82617 3.208512 2.76305 6.399347 5.39752 9.535156 7.86719 3.13581 2.46966 6.216304 4.77563 9.205078 6.8789 2.988774 2.10316 5.906354 3.98817 8.685544 5.63282 2.7792 1.64464 5.42041 3.04817 7.85743 4.18945 2.43701 1.14128 4.67058 2.02021 6.63281 2.61328s3.65297.90039 5.00781.90039 3.04558-.30732 5.00781-.90039 4.1958-1.472 6.63281-2.61328c2.43702-1.14128 5.07823-2.54481 7.85743-4.18945 2.77919-1.64465 5.69677-3.52966 8.68554-5.63282 2.98878-2.10327 6.06927-4.40924 9.20508-6.8789 3.13581-2.46967 6.32665-5.10414 9.53516-7.86719 6.41702-5.52611 12.90613-11.56456 19.16797-17.82617 6.26161-6.26184 12.30006-12.75095 17.82617-19.16797 2.76305-3.20851 5.39752-6.39935 7.86719-9.53516 2.46966-3.13581 4.77563-6.2163 6.8789-9.20508 2.10316-2.98877 3.98817-5.90635 5.63282-8.68554 1.64464-2.7792 3.04817-5.42041 4.18945-7.85743 1.14128-2.43701 2.02021-4.67058 2.61328-6.63281s.90039-3.65297.90039-5.00781c0-.04703-.03051-.12599-.03125-.17383z" fill="#fff" opacity=".1"/>
      <path d="m128 16c-5.41935 0-16.2285 4.923297-28.183594 13.335938-11.955097 8.413099-25.384525 20.049045-37.908203 32.572265-12.523226 12.52368-24.159169 25.953103-32.572265 37.908203-8.412646 11.955094-13.335938 22.764244-13.335938 28.183594 0 .31417.019918.65043.052734 1 .533258-5.68041 5.358252-15.92156 13.283204-27.18359 8.413096-11.955104 20.049039-25.384527 32.572265-37.908207 12.523678-12.52322 25.953106-24.159166 37.908203-32.572265 11.955094-8.412641 22.764244-13.335938 28.183594-13.335938s16.2285 4.923297 28.18359 13.335938c11.9551 8.413099 25.38453 20.049045 37.90821 32.572265 12.52322 12.52368 24.15916 25.953103 32.57226 37.908207 7.92495 11.26203 12.74995 21.50318 13.28321 27.18359.03281-.34957.05273-.68583.05273-1 0-5.41935-4.9233-16.2285-13.33594-28.183594-8.4131-11.9551-20.04904-25.384523-32.57226-37.908203-12.52368-12.52322-25.95311-24.159166-37.90821-32.572265-11.95509-8.412641-22.76424-13.335938-28.18359-13.335938z" fill="#fefefe" opacity=".3"/>
      <path d="m16.179688 127c-.024364.29687-.179688.72946-.179688 1 0 5.41935 4.923291 16.2285 13.335938 28.18359 8.413096 11.9551 20.049039 25.38453 32.572265 37.90821 12.523678 12.52322 25.953106 24.15916 37.908203 32.57226 11.955094 8.41264 22.764244 13.33594 28.183594 13.33594s16.2285-4.9233 28.18359-13.33594c11.9551-8.4131 25.38453-20.04904 37.90821-32.57226 12.52322-12.52368 24.15916-25.95311 32.57226-37.90821 8.41264-11.95509 13.33594-22.76424 13.33594-28.18359 0-.27054-.15532-.70313-.17969-1-.09764 1.18985-.24606 2.43741-.7207 4.00781-.59307 1.96223-1.472 4.1958-2.61328 6.63281-1.14128 2.43702-2.54481 5.07823-4.18945 7.85743-1.64465 2.77919-3.52966 5.69677-5.63282 8.68554-2.10327 2.98878-4.40924 6.06927-6.8789 9.20508-2.46967 3.13581-5.10414 6.32665-7.86719 9.53516-5.52611 6.41702-11.56456 12.90613-17.82617 19.16797-6.26184 6.26161-12.75095 12.30006-19.16797 17.82617-3.20851 2.76305-6.39935 5.39752-9.53516 7.86719-3.13581 2.46966-6.2163 4.77563-9.20508 6.8789-2.98877 2.10316-5.90635 3.98817-8.68554 5.63282-2.7792 1.64464-5.42041 3.04817-7.85743 4.18945-2.43701 1.14128-4.67058 2.02021-6.63281 2.61328s-3.65297.90039-5.00781.90039-3.04558-.30732-5.00781-.90039-4.1958-1.472-6.63281-2.61328c-2.43702-1.14128-5.07823-2.54481-7.85743-4.18945-2.77919-1.64465-5.69677-3.52966-8.685544-5.63282-2.988774-2.10327-6.069268-4.40924-9.205078-6.8789-3.135809-2.46967-6.326644-5.10414-9.535156-7.86719-6.417024-5.52611-12.90613-11.56456-19.167969-17.82617-6.261613-6.26184-12.300067-12.75095-17.826172-19.16797-2.763052-3.20851-5.397521-6.39935-7.867187-9.53516s-4.775633-6.2163-6.878906-9.20508c-2.103162-2.98877-3.988166-5.90635-5.632813-8.68554-1.644647-2.7792-3.048171-5.42041-4.189453-7.85743-1.141282-2.43701-2.020215-4.67058-2.613281-6.63281-.474641-1.5704-.623057-2.81796-.720703-4.00781z" fill="#595959"/>
      <path d="m16.052734 127c-.032816.34957-.052734.68583-.052734 1 0 5.41935 4.923291 16.2285 13.335938 28.18359 8.413096 11.9551 20.049039 25.38453 32.572265 37.90821 12.523678 12.52322 25.953106 24.15916 37.908203 32.57226 11.955094 8.41264 22.764244 13.33594 28.183594 13.33594s16.2285-4.9233 28.18359-13.33594c11.9551-8.4131 25.38453-20.04904 37.90821-32.57226 12.52322-12.52368 24.15916-25.95311 32.57226-37.90821 8.41264-11.95509 13.33594-22.76424 13.33594-28.18359 0-.31417-.01992-.65043-.05273-1-.53326 5.68041-5.35826 15.92156-13.28321 27.18359-8.4131 11.9551-20.04904 25.38453-32.57226 37.90821-12.52368 12.52322-25.95311 24.15916-37.90821 32.57226-11.95509 8.41264-22.76424 13.33594-28.18359 13.33594s-16.2285-4.9233-28.183594-13.33594c-11.955097-8.4131-25.384525-20.04904-37.908203-32.57226-12.523226-12.52368-24.159169-25.95311-32.572265-37.90821-7.924952-11.26203-12.749946-21.50318-13.283204-27.18359z" fill="#141414" opacity=".2"/>
    </g>
  </g>
  <path d="m-347.79661 171.93221v40 120l90-60 90 60-180 120v40l240-160-120-80z" fill="#a6d74f" transform="matrix(.4516129 0 0 .4516129 251.69764051361 -21.77831136523)"/>
  <g transform="matrix(.99999998641 0 0 .99999998641 1.22634746398 3.06586807022)">
    <path d="m93.402344 52.802734v2l54.193356 36.128907 52.69336 35.128909 1.5-1-54.19336-36.128909zm79.789066 73.257816-79.789066 53.19336v2l81.289066-54.19336z" fill="#f1ffe4" opacity=".3"/>
    <path d="m134.04688 95.964844-40.644536 27.095706v2l40.644536-27.095706 39.14453 26.095706 1.5-1zm66.24218 28.095706-106.886716 71.25781v2l108.386716-72.25781z" opacity=".2"/>
  </g>
</svg>

<svg xmlns="http://www.w3.org/2000/svg" width="256" height="256" x="0" y="0" version="1.1" viewBox="0 0 256 256">
 <defs>
  <radialGradient id="Gradient_1" cx="256" cy="128" r="256" gradientTransform="matrix(0.9032258,0,0,0.67741935,-103.22581,239.48387)" gradientUnits="userSpaceOnUse">
   <stop id="stop2" offset="0" stop-color="#606060"/>
   <stop id="stop4" offset="1" stop-color="#202020"/>
  </radialGradient>
  <linearGradient id="Gradient_2" x1="256" x2="256" y1="0" y2="512" gradientTransform="translate(752.81356,-381.83051)" gradientUnits="userSpaceOnUse">
   <stop id="stop7" offset="0" stop-color="#FFF" stop-opacity=".5"/>
   <stop id="stop9" offset="1" stop-color="#FFF" stop-opacity=".251"/>
  </linearGradient>
  <radialGradient id="Gradient_3" cx="256" cy="128" r="256" gradientTransform="matrix(2,0,0,1.5,-256,-64)" gradientUnits="userSpaceOnUse">
   <stop id="stop12" offset="0" stop-color="#404040"/>
   <stop id="stop14" offset="1" stop-color="#000"/>
  </radialGradient>
  <radialGradient id="Gradient_4" cx="256" cy="-42.667" r="256" gradientTransform="matrix(1.5,0,0,1.5,-128,64)" gradientUnits="userSpaceOnUse">
   <stop id="stop17" offset="0" stop-color="#FFF"/>
   <stop id="stop19" offset="1" stop-color="#FFF" stop-opacity="0"/>
  </radialGradient>
  <clipPath id="Clip_1">
   <path d="M 157,69 H 451 V 443 H 157 Z m 27,27 v 160 l 90,-60 90,60 -180,120 v 40 L 424,256 Z"/>
  </clipPath>
  <filter id="Shadow_2">
   <feGaussianBlur id="feGaussianBlur25" in="SourceAlpha" stdDeviation="13"/>
   <feOffset id="feOffset27" dx="0" dy="0" result="offsetblur"/>
   <feFlood id="feFlood29" flood-color="#ABD582"/>
   <feComposite id="feComposite31" in2="offsetblur" operator="in"/>
  </filter>
  <filter style="color-interpolation-filters:sRGB" id="filter936" width="1.024" height="1.024" x="-.01" y="-.01">
   <feGaussianBlur id="feGaussianBlur938" stdDeviation="1.14"/>
  </filter>
  <filter style="color-interpolation-filters:sRGB" id="filter950" width="1.096" height="1.096" x="-.05" y="-.05">
   <feGaussianBlur id="feGaussianBlur952" stdDeviation="4.56"/>
  </filter>
 </defs>
 <g id="Ebene_1" transform="translate(0,-256)">
  <path style="opacity:0.1;filter:url(#filter950)" d="m 128,270 c -5.51612,0 -16.51805,5.01187 -28.68663,13.57473 -12.16858,8.56334 -25.837087,20.40739 -38.584403,33.15424 C 47.982112,329.47628 36.138064,343.14479 27.574734,355.31338 19.011862,367.48195 14,378.48388 14,384 c 0,5.51612 5.011862,16.51805 13.574734,28.68662 8.56333,12.16859 20.407378,25.8371 33.154233,38.58441 12.747316,12.74685 26.415823,24.5909 38.584403,33.15424 C 111.48195,492.98813 122.48388,498 128,498 c 5.51612,0 16.51805,-5.01187 28.68662,-13.57473 12.16859,-8.56334 25.8371,-20.40739 38.58441,-33.15424 12.74685,-12.74731 24.5909,-26.41582 33.15424,-38.58441 C 236.98813,400.51805 242,389.51612 242,384 c 0,-5.51612 -5.01187,-16.51805 -13.57473,-28.68662 -8.56334,-12.16859 -20.40739,-25.8371 -33.15424,-38.58441 -12.74731,-12.74685 -26.41582,-24.5909 -38.58441,-33.15424 C 144.51805,275.01187 133.51612,270 128,270 Z"/>
  <path d="m 128,270 c -5.51612,0 -16.51805,5.01187 -28.68663,13.57473 -12.16858,8.56334 -25.837087,20.40739 -38.584403,33.15424 C 47.982112,329.47628 36.138064,343.14479 27.574734,355.31338 19.011862,367.48195 14,378.48388 14,384 c 0,5.51612 5.011862,16.51805 13.574734,28.68662 8.56333,12.16859 20.407378,25.8371 33.154233,38.58441 12.747316,12.74685 26.415823,24.5909 38.584403,33.15424 C 111.48195,492.98813 122.48388,498 128,498 c 5.51612,0 16.51805,-5.01187 28.68662,-13.57473 12.16859,-8.56334 25.8371,-20.40739 38.58441,-33.15424 12.74685,-12.74731 24.5909,-26.41582 33.15424,-38.58441 C 236.98813,400.51805 242,389.51612 242,384 c 0,-5.51612 -5.01187,-16.51805 -13.57473,-28.68662 -8.56334,-12.16859 -20.40739,-25.8371 -33.15424,-38.58441 -12.74731,-12.74685 -26.41582,-24.5909 -38.58441,-33.15424 C 144.51805,275.01187 133.51612,270 128,270 Z" style="opacity:0.1;filter:url(#filter936)"/>
  <path style="opacity:0.1" d="m 128,270 c -5.51612,0 -16.51805,5.01187 -28.68663,13.57473 -12.16858,8.56334 -25.837087,20.40739 -38.584403,33.15424 C 47.982112,329.47628 36.138064,343.14479 27.574734,355.31338 19.011862,367.48195 14,378.48388 14,384 c 0,5.51612 5.011862,16.51805 13.574734,28.68662 8.56333,12.16859 20.407378,25.8371 33.154233,38.58441 12.747316,12.74685 26.415823,24.5909 38.584403,33.15424 C 111.48195,492.98813 122.48388,498 128,498 c 5.51612,0 16.51805,-5.01187 28.68662,-13.57473 12.16859,-8.56334 25.8371,-20.40739 38.58441,-33.15424 12.74685,-12.74731 24.5909,-26.41582 33.15424,-38.58441 C 236.98813,400.51805 242,389.51612 242,384 c 0,-5.51612 -5.01187,-16.51805 -13.57473,-28.68662 -8.56334,-12.16859 -20.40739,-25.8371 -33.15424,-38.58441 -12.74731,-12.74685 -26.41582,-24.5909 -38.58441,-33.15424 C 144.51805,275.01187 133.51612,270 128,270 Z"/>
  <path d="m 128,272 c -5.41935,0 -16.22826,4.92394 -28.183355,13.33658 -11.955097,8.4131 -25.383806,20.04936 -37.907484,32.57258 -12.523226,12.52368 -24.159484,25.95239 -32.57258,37.90749 C 20.923935,367.77174 16,378.58065 16,384 c 0,5.41935 4.923935,16.22826 13.336581,28.18335 8.413096,11.9551 20.049354,25.38381 32.57258,37.90749 12.523678,12.52322 25.952387,24.15948 37.907484,32.57258 C 111.77174,491.07606 122.58065,496 128,496 c 5.41935,0 16.22826,-4.92394 28.18335,-13.33658 11.9551,-8.4131 25.38381,-20.04936 37.90749,-32.57258 12.52322,-12.52368 24.15948,-25.95239 32.57258,-37.90749 C 235.07606,400.22826 240,389.41935 240,384 c 0,-5.41935 -4.92394,-16.22826 -13.33658,-28.18335 -8.4131,-11.9551 -20.04936,-25.38381 -32.57258,-37.90749 C 181.56716,305.38594 168.13845,293.74968 156.18335,285.33658 144.22826,276.92394 133.41935,272 128,272 Z" style="fill:#595959"/>
  <path style="opacity:0.1;fill:#ffffff" d="M 16.03125 127.82617 C 16.030509 127.87401 16 127.95297 16 128 C 16 129.35484 16.307324 131.04558 16.900391 133.00781 C 17.493457 134.97004 18.37239 137.20361 19.513672 139.64062 C 20.654954 142.07764 22.058478 144.71885 23.703125 147.49805 C 25.347772 150.27724 27.232776 153.19482 29.335938 156.18359 C 31.439211 159.17237 33.745178 162.25286 36.214844 165.38867 C 38.68451 168.52448 41.318979 171.71532 44.082031 174.92383 C 49.608136 181.34085 55.64659 187.82996 61.908203 194.0918 C 68.170042 200.35341 74.659148 206.39186 81.076172 211.91797 C 84.284684 214.68102 87.475519 217.31549 90.611328 219.78516 C 93.747138 222.25482 96.827632 224.56079 99.816406 226.66406 C 102.80518 228.76722 105.72276 230.65223 108.50195 232.29688 C 111.28115 233.94152 113.92236 235.34505 116.35938 236.48633 C 118.79639 237.62761 121.02996 238.50654 122.99219 239.09961 C 124.95442 239.69268 126.64516 240 128 240 C 129.35484 240 131.04558 239.69268 133.00781 239.09961 C 134.97004 238.50654 137.20361 237.62761 139.64062 236.48633 C 142.07764 235.34505 144.71885 233.94152 147.49805 232.29688 C 150.27724 230.65223 153.19482 228.76722 156.18359 226.66406 C 159.17237 224.56079 162.25286 222.25482 165.38867 219.78516 C 168.52448 217.31549 171.71532 214.68102 174.92383 211.91797 C 181.34085 206.39186 187.82996 200.35341 194.0918 194.0918 C 200.35341 187.82996 206.39186 181.34085 211.91797 174.92383 C 214.68102 171.71532 217.31549 168.52448 219.78516 165.38867 C 222.25482 162.25286 224.56079 159.17237 226.66406 156.18359 C 228.76722 153.19482 230.65223 150.27724 232.29688 147.49805 C 233.94152 144.71885 235.34505 142.07764 236.48633 139.64062 C 237.62761 137.20361 238.50654 134.97004 239.09961 133.00781 C 239.69268 131.04558 240 129.35484 240 128 C 240 127.95297 239.96949 127.87401 239.96875 127.82617 L 16.03125 127.82617 z" transform="translate(0,256)"/>
  <path style="fill:#fefefe;opacity:0.3" d="M 128 16 C 122.58065 16 111.7715 20.923297 99.816406 29.335938 C 87.861309 37.749037 74.431881 49.384983 61.908203 61.908203 C 49.384977 74.431883 37.749034 87.861306 29.335938 99.816406 C 20.923292 111.7715 16 122.58065 16 128 C 16 128.31417 16.019918 128.65043 16.052734 129 C 16.585992 123.31959 21.410986 113.07844 29.335938 101.81641 C 37.749034 89.861306 49.384977 76.431883 61.908203 63.908203 C 74.431881 51.384983 87.861309 39.749037 99.816406 31.335938 C 111.7715 22.923297 122.58065 18 128 18 C 133.41935 18 144.2285 22.923297 156.18359 31.335938 C 168.13869 39.749037 181.56812 51.384983 194.0918 63.908203 C 206.61502 76.431883 218.25096 89.861306 226.66406 101.81641 C 234.58901 113.07844 239.41401 123.31959 239.94727 129 C 239.98008 128.65043 240 128.31417 240 128 C 240 122.58065 235.0767 111.7715 226.66406 99.816406 C 218.25096 87.861306 206.61502 74.431883 194.0918 61.908203 C 181.56812 49.384983 168.13869 37.749037 156.18359 29.335938 C 144.2285 20.923297 133.41935 16 128 16 z" transform="translate(0,256)"/>
  <path style="fill:#595959" d="M 16.179688 127 C 16.155324 127.29687 16 127.72946 16 128 C 16 133.41935 20.923291 144.2285 29.335938 156.18359 C 37.749034 168.13869 49.384977 181.56812 61.908203 194.0918 C 74.431881 206.61502 87.861309 218.25096 99.816406 226.66406 C 111.7715 235.0767 122.58065 240 128 240 C 133.41935 240 144.2285 235.0767 156.18359 226.66406 C 168.13869 218.25096 181.56812 206.61502 194.0918 194.0918 C 206.61502 181.56812 218.25096 168.13869 226.66406 156.18359 C 235.0767 144.2285 240 133.41935 240 128 C 240 127.72946 239.84468 127.29687 239.82031 127 C 239.72267 128.18985 239.57425 129.43741 239.09961 131.00781 C 238.50654 132.97004 237.62761 135.20361 236.48633 137.64062 C 235.34505 140.07764 233.94152 142.71885 232.29688 145.49805 C 230.65223 148.27724 228.76722 151.19482 226.66406 154.18359 C 224.56079 157.17237 222.25482 160.25286 219.78516 163.38867 C 217.31549 166.52448 214.68102 169.71532 211.91797 172.92383 C 206.39186 179.34085 200.35341 185.82996 194.0918 192.0918 C 187.82996 198.35341 181.34085 204.39186 174.92383 209.91797 C 171.71532 212.68102 168.52448 215.31549 165.38867 217.78516 C 162.25286 220.25482 159.17237 222.56079 156.18359 224.66406 C 153.19482 226.76722 150.27724 228.65223 147.49805 230.29688 C 144.71885 231.94152 142.07764 233.34505 139.64062 234.48633 C 137.20361 235.62761 134.97004 236.50654 133.00781 237.09961 C 131.04558 237.69268 129.35484 238 128 238 C 126.64516 238 124.95442 237.69268 122.99219 237.09961 C 121.02996 236.50654 118.79639 235.62761 116.35938 234.48633 C 113.92236 233.34505 111.28115 231.94152 108.50195 230.29688 C 105.72276 228.65223 102.80518 226.76722 99.816406 224.66406 C 96.827632 222.56079 93.747138 220.25482 90.611328 217.78516 C 87.475519 215.31549 84.284684 212.68102 81.076172 209.91797 C 74.659148 204.39186 68.170042 198.35341 61.908203 192.0918 C 55.64659 185.82996 49.608136 179.34085 44.082031 172.92383 C 41.318979 169.71532 38.68451 166.52448 36.214844 163.38867 C 33.745178 160.25286 31.439211 157.17237 29.335938 154.18359 C 27.232776 151.19482 25.347772 148.27724 23.703125 145.49805 C 22.058478 142.71885 20.654954 140.07764 19.513672 137.64062 C 18.37239 135.20361 17.493457 132.97004 16.900391 131.00781 C 16.42575 129.43741 16.277334 128.18985 16.179688 127 z" transform="translate(0,256)"/>
  <path style="fill:#141414;opacity:0.2" d="M 16.052734 127 C 16.019918 127.34957 16 127.68583 16 128 C 16 133.41935 20.923291 144.2285 29.335938 156.18359 C 37.749034 168.13869 49.384977 181.56812 61.908203 194.0918 C 74.431881 206.61502 87.861309 218.25096 99.816406 226.66406 C 111.7715 235.0767 122.58065 240 128 240 C 133.41935 240 144.2285 235.0767 156.18359 226.66406 C 168.13869 218.25096 181.56812 206.61502 194.0918 194.0918 C 206.61502 181.56812 218.25096 168.13869 226.66406 156.18359 C 235.0767 144.2285 240 133.41935 240 128 C 240 127.68583 239.98008 127.34957 239.94727 127 C 239.41401 132.68041 234.58901 142.92156 226.66406 154.18359 C 218.25096 166.13869 206.61502 179.56812 194.0918 192.0918 C 181.56812 204.61502 168.13869 216.25096 156.18359 224.66406 C 144.2285 233.0767 133.41935 238 128 238 C 122.58065 238 111.7715 233.0767 99.816406 224.66406 C 87.861309 216.25096 74.431881 204.61502 61.908203 192.0918 C 49.384977 179.56812 37.749034 166.13869 29.335938 154.18359 C 21.410986 142.92156 16.585992 132.68041 16.052734 127 z" transform="translate(0,256)"/>
 </g>
 <g id="add" transform="matrix(0.4516129,0,0,0.4516129,39.087473,17.412503)" style="fill:#a6d74f">
  <g transform="translate(470.77966,-86.779661)" style="fill:#a6d74f">
   <path d="m -347.79661,171.93221 v 40 120 l 90,-60 90,60 -180,120 v 40 l 240,-160 -120,-80 z" style="fill:#a6d74f"/>
  </g>
 </g>
 <g transform="matrix(0.4516129,0,0,0.4516129,39.087473,17.412503)">
  <g transform="translate(470.77966,-86.779661)">
   <path style="opacity:0.3;fill:#f1ffe4" d="m 93.402344,52.802734 v 2 l 54.193356,36.128907 52.69336,35.128909 1.5,-1 -54.19336,-36.128909 z m 79.789066,73.257816 -79.789066,53.19336 v 2 l 81.289066,-54.19336 z" transform="matrix(2.2142857,0,0,2.2142857,-554.61501,55.012112)"/>
  </g>
 </g>
 <g transform="matrix(0.4516129,0,0,0.4516129,39.087473,17.412503)">
  <g transform="translate(470.77966,-86.779661)">
   <path style="opacity:0.2" d="M 134.04688,95.964844 93.402344,123.06055 v 2 l 40.644536,-27.095706 39.14453,26.095706 1.5,-1 z m 66.24218,28.095706 -106.886716,71.25781 v 2 L 201.78906,125.06055 Z" transform="matrix(2.2142857,0,0,2.2142857,-554.61501,55.012112)"/>
  </g>
 </g>
</svg>
